img/svg/scrol.svg

<svg width="26" height="40" viewBox="0 0 26 40" fill="none" xmlns="http://www.w3.org/2000/svg">
<path d="M13.0186 33.605L6.00537 26.1911L8.27557 24.0436L13.0125 29.0512L17.7214 24.0466L19.9974 26.188L13.0186 33.605ZM25.9688 30.625V9.375C25.9688 4.20563 21.7631 0 16.5938 0H9.40625C4.23688 0 0.03125 4.20563 0.03125 9.375V30.625C0.03125 35.7944 4.23688 40 9.40625 40H16.5938C21.7631 40 25.9688 35.7944 25.9688 30.625ZM16.5938 3.125C20.0401 3.125 22.8438 5.92865 22.8438 9.375V30.625C22.8438 34.0714 20.0401 36.875 16.5938 36.875H9.40625C5.9599 36.875 3.15625 34.0714 3.15625 30.625V9.375C3.15625 5.92865 5.9599 3.125 9.40625 3.125H16.5938ZM13 6.32812C12.137 6.32812 11.4375 7.02759 11.4375 7.89062C11.4375 8.75366 12.137 9.45312 13 9.45312C13.863 9.45312 14.5625 8.75366 14.5625 7.89062C14.5625 7.02759 13.863 6.32812 13 6.32812ZM13 12.5781C12.137 12.5781 11.4375 13.2776 11.4375 14.1406C11.4375 15.0037 12.137 15.7031 13 15.7031C13.863 15.7031 14.5625 15.0037 14.5625 14.1406C14.5625 13.2776 13.863 12.5781 13 12.5781ZM13 18.8281C12.137 18.8281 11.4375 19.5276 11.4375 20.3906C11.4375 21.2537 12.137 21.9531 13 21.9531C13.863 21.9531 14.5625 21.2537 14.5625 20.3906C14.5625 19.5276 13.863 18.8281 13 18.8281Z" fill="#0E153A"/>
</svg>

<svg width="26" height="40" fill="none" xmlns="http://www.w3.org/2000/svg"><path d="M13.019 33.605l-7.014-7.414 2.27-2.147 4.737 5.007 4.71-5.004 2.275 2.141-6.978 7.417zm12.95-2.98V9.375c0-5.17-4.206-9.375-9.375-9.375H9.406C4.236 0 .031 4.206.031 9.375v21.25C.031 35.795 4.237 40 9.406 40h7.188c5.17 0 9.375-4.206 9.375-9.375zm-9.375-27.5a6.257 6.257 0 016.25 6.25v21.25a6.257 6.257 0 01-6.25 6.25H9.406a6.257 6.257 0 01-6.25-6.25V9.375a6.257 6.257 0 016.25-6.25h7.188zM13 6.328a1.562 1.562 0 100 3.125 1.562 1.562 0 000-3.125zm0 6.25a1.562 1.562 0 100 3.125 1.562 1.562 0 000-3.125zm0 6.25a1.562 1.562 0 100 3.125 1.562 1.562 0 000-3.125z" fill="#0E153A"/></svg>
